X:1
T:Barre, CM
T:Barre, CM
T:Edward Clark, 1871
T:Public Domain Courtesy of the Cyber Hymnal™
C:Edward Clark, 1871
Z:Public Domain
Z:Courtesy of the Cyber Hymnal™
%%score ( 1 2 ) ( 3 4 )
L:1/8
Q:1/4=103
M:3/4
K:C
V:1 treble 
V:2 treble 
V:3 bass 
V:4 bass 
V:1
 [CE]2 | [CE][DF] [EG]2 [Gc]2 | [GB][FA] [FA]2 [FA]2 | G[Gc] [GB]2 [^FA]2 | G4 [B,F]2 | %5
 [CE][DF] [EG]2 [Gc]2 | [GB][FA] [FA]2 [FA]2 | [EG][CE] [B,G]2 [DF]2 | [CE]4 |] %9
V:2
 x2 | x6 | x6 | G x5 | G4 x2 | x6 | x6 | x6 | x4 |] %9
V:3
 [C,G,]2 | [C,G,][C,G,] (G,C) [E,C]2 | [F,C][F,C] [F,C]2 [F,C]2 | [E,C][C,E] [D,D]2 (DC) | %4
 [G,,B,]4 [G,,G,]2 | [C,G,][C,G,] (G,C) [E,C]2 | [F,C][F,C] [F,C]2 [F,C]2 | %7
 [G,C]G, [G,,G,]2 [G,,G,]2 | [C,G,]4 |] %9
V:4
 x2 | x2 C,2 x2 | x6 | x4 D,2 | x6 | x2 C,2 x2 | x6 | x G, x4 | x4 |] %9

